Adwaita++/actions/16/im-icq.svg

<svg height="16" viewBox="0 0 16 16" width="16" xmlns="http://www.w3.org/2000/svg">
  <g fill="#474747">
    <path d="m6.5371094 1.1953125c-.1164598.0006423-.2330836.0161796-.3476563.046875-.9165378.2455878-1.4220168 1.4001619-1.2792969 2.734375-1.2522155-.4837086-2.4980562-.2946919-2.9726562.5273437-.4746.8220357-.0157187 1.9952993 1.0292969 2.8378907-1.2266199.5431667-1.97216865 1.5580032-1.7265625 2.4746093.2455195.9165558 1.3980587 1.4183708 2.7324218 1.2753908.080622-.208643.1759219-.416932.2949219-.623047.4768672-.49256 1.2608094-1.063662 2.0605469-1.3730469a2.000008 2.000008 0 0 1 -.2597656-.5742187 2.000008 2.000008 0 0 1 1.4140625-2.4492188 2.000008 2.000008 0 0 1 2.4492187 1.4140625 2.000008 2.000008 0 0 1 -1.4140625 2.4492188 2.000008 2.000008 0 0 1 -.6269531.0644531c.1315411.847171.0295833 1.807337-.1582031 2.466797v.001953c-.11893.205994-.2518382.391757-.3925781.566406.5435131 1.22682 1.5560751 1.976032 2.4726562 1.730469.916538-.245588 1.418061-1.400075 1.275391-2.734375 1.25221.483717 2.498056.294692 2.972656-.527344.474571-.822006.015675-1.9972771-1.029297-2.8398435 1.226829-.5435081 1.976082-1.5561617 1.730469-2.4726563-.245597-.9165428-1.400076-1.4200136-2.734375-1.2773437.483658-1.252129.294692-2.4980562-.527344-2.9726563-.822001-.47458-1.9953292-.0156667-2.8378906 1.0292969-.475574-1.0734674-1.3097814-1.7798867-2.125-1.7753906zm-2.7207032 11.9453125c.0018098.006126.003957.013502.0058594.019531.0209274.066354.0473153.129524.0742188.191406-.0299774-.067675-.0576777-.137534-.0800782-.210937zm.15625.373047c.001178.002084.0027145.003788.0039063.005859-.0007946-.00193-.0009679-.004052-.0019531-.005859zm.0039063.005859c.0013538.003289.0021788.006731.0039063.009766.0359902.062464.0798277.116092.1230468.171875-.0451552-.058134-.0894409-.116456-.1269531-.181641zm2.75.125c-.027384.021799-.0543748.045712-.0820313.066407.0036002-.002656.0081346-.003172.0117188-.00586.024101-.018232.0464418-.041419.0703125-.060547zm-1.1035156.554688c-.0747573.016491-.1490635.02775-.2226563.035156.007071-.000767.0144086-.001165.0214844-.001953.0669888-.007628.1332295-.018124.2011719-.033203zm-.609375.027343c.0699883.009577.1388299.021539.2109375.021485.0055396-.000035.0120127-.001818.0175781-.001953-.0777569.000706-.1532691-.009182-.2285156-.019532z"/>
    <path d="m6.3300781 9.0957031c-.8005169.3089349-1.5849596.8797209-2.0625 1.3730469-.8309913 1.439347-.7271393 3.043656.2324219 3.597656.9595662.553992 2.4014219-.158314 3.2324219-1.597656v-.001953c.1876998-.65951.2902272-1.621415.1582031-2.4687501a2.000008 2.000008 0 0 1 -.8886719-.265625 2.000008 2.000008 0 0 1 -.671875-.6367188z" opacity=".3"/>
  </g>
</svg>

<svg xmlns="http://www.w3.org/2000/svg" width="16" height="16" viewBox="0 0 16 16">
 <defs>
  <style id="current-color-scheme" type="text/css">
   .ColorScheme-Text { color:#474747; } .ColorScheme-Highlight { color:#4285f4; }
  </style>
 </defs>
 <path style="fill:currentColor" class="ColorScheme-Text" d="M 6.5371094 1.1953125 C 6.4206496 1.1959548 6.3040258 1.2114921 6.1894531 1.2421875 C 5.2729153 1.4877753 4.7674363 2.6423494 4.9101562 3.9765625 C 3.6579407 3.4928539 2.4121 3.6818706 1.9375 4.5039062 C 1.4629 5.3259419 1.9217813 6.4992055 2.9667969 7.3417969 C 1.740177 7.8849636 0.99462825 8.8998001 1.2402344 9.8164062 C 1.4857539 10.732962 2.6382931 11.234777 3.9726562 11.091797 C 4.0532782 10.883154 4.1485781 10.674865 4.2675781 10.46875 C 4.7444453 9.97619 5.5283875 9.405088 6.328125 9.0957031 A 2.000008 2.000008 0 0 1 6.0683594 8.5214844 A 2.000008 2.000008 0 0 1 7.4824219 6.0722656 A 2.000008 2.000008 0 0 1 9.9316406 7.4863281 A 2.000008 2.000008 0 0 1 8.5175781 9.9355469 A 2.000008 2.000008 0 0 1 7.890625 10 C 8.0221661 10.847171 7.9202083 11.807337 7.7324219 12.466797 L 7.7324219 12.46875 C 7.6134919 12.674744 7.4805837 12.860507 7.3398438 13.035156 C 7.8833569 14.261976 8.8959189 15.011188 9.8125 14.765625 C 10.729038 14.520037 11.230561 13.36555 11.087891 12.03125 C 12.340101 12.514967 13.585947 12.325942 14.060547 11.503906 C 14.535118 10.6819 14.076222 9.5066289 13.03125 8.6640625 C 14.258079 8.1205544 15.007332 7.1079008 14.761719 6.1914062 C 14.516122 5.2748634 13.361643 4.7713926 12.027344 4.9140625 C 12.511002 3.6619335 12.322036 2.4160063 11.5 1.9414062 C 10.677999 1.4668262 9.5046708 1.9257395 8.6621094 2.9707031 C 8.1865354 1.8972357 7.352328 1.1908164 6.5371094 1.1953125 z M 3.8164062 13.140625 C 3.818216 13.146751 3.8203632 13.154127 3.8222656 13.160156 C 3.843193 13.22651 3.8695809 13.28968 3.8964844 13.351562 C 3.866507 13.283887 3.8388067 13.214028 3.8164062 13.140625 z M 3.9726562 13.513672 C 3.9738342 13.515756 3.9753707 13.51746 3.9765625 13.519531 C 3.9757679 13.517601 3.9755946 13.515479 3.9746094 13.513672 L 3.9726562 13.513672 z M 3.9765625 13.519531 C 3.9779163 13.52282 3.9787413 13.526262 3.9804688 13.529297 C 4.016459 13.591761 4.0602965 13.645389 4.1035156 13.701172 C 4.0583604 13.643038 4.0140747 13.584716 3.9765625 13.519531 z M 6.7265625 13.644531 C 6.6991785 13.66633 6.6721877 13.690243 6.6445312 13.710938 C 6.6481314 13.708282 6.6526658 13.707766 6.65625 13.705078 C 6.680351 13.686846 6.7026918 13.663659 6.7265625 13.644531 z M 5.6230469 14.199219 C 5.5482896 14.21571 5.4739834 14.226969 5.4003906 14.234375 C 5.4074616 14.233608 5.4147992 14.23321 5.421875 14.232422 C 5.4888638 14.224794 5.5551045 14.214298 5.6230469 14.199219 z M 5.0136719 14.226562 C 5.0836602 14.236139 5.1525018 14.248101 5.2246094 14.248047 C 5.230149 14.248012 5.2366221 14.246229 5.2421875 14.246094 C 5.1644306 14.2468 5.0889184 14.236912 5.0136719 14.226562 z"/>
 <path style="fill:currentColor;opacity:0.3" class="ColorScheme-Text" d="M 6.3300781 9.0957031 C 5.5295612 9.404638 4.7451185 9.975424 4.2675781 10.46875 C 3.4365868 11.908097 3.5404388 13.512406 4.5 14.066406 C 5.4595662 14.620398 6.9014219 13.908092 7.7324219 12.46875 L 7.7324219 12.466797 C 7.9201217 11.807287 8.0226491 10.845382 7.890625 9.9980469 A 2.000008 2.000008 0 0 1 7.0019531 9.7324219 A 2.000008 2.000008 0 0 1 6.3300781 9.0957031 z"/>
</svg>
